docs/img/icons/logos_jquery.svg

<svg width="128" height="29" viewBox="0 0 128 29" fill="none" xmlns="http://www.w3.org/2000/svg">
<g clip-path="url(#clip0)">
<path fill-rule="evenodd" clip-rule="evenodd" d="M122.429 2.1615L127.784 2.191C127.784 2.191 117.828 15.682 117.015 16.7815C116.751 17.1375 116.35 17.5215 116.147 17.9975C115.633 19.194 115.105 21.8187 115.105 21.8187L110.205 21.8433C110.205 21.8433 110.967 19.1072 110.936 17.65C110.908 16.377 110.258 15.1055 109.894 13.8287C109.525 12.5362 109.025 10.0072 109.025 10.0072H114.063L114.757 12.7865L122.429 2.1615" fill="#1A1918"/>
<path fill-rule="evenodd" clip-rule="evenodd" d="M112.289 5.00674C113.277 5.60249 113.884 8.88899 113.884 8.88899C113.884 8.88899 108.713 8.96524 105.899 8.96524H103.467L100.514 21.8187H95.9982C95.9982 21.8187 98.8087 7.85024 99.4722 5.31774C99.6872 4.49774 100.945 4.63849 103.069 4.63849H106.462C108.652 4.63849 111.212 4.35874 112.289 5.00674" fill="#1A1918"/>
<path fill-rule="evenodd" clip-rule="evenodd" d="M91.265 11.2668C91.265 11.2668 91.4057 10.4418 90.7875 9.48629C90.2592 8.67179 89.7715 8.48229 88.3817 8.43879C84.458 8.31554 84.5342 11.2233 84.5342 11.2233L91.265 11.2668ZM95.5205 7.93679C96.0955 10.011 94.9995 14.8848 94.9995 14.8848C94.9995 14.8848 89.276 14.7893 86.141 14.8848C85.1662 14.9145 83.9995 14.7788 83.7092 15.2323C83.301 15.8678 83.8585 16.846 84.331 17.2593C84.8747 17.735 85.934 17.7893 86.3147 17.8375C88.8592 18.1608 94.1847 17.921 94.1847 17.921L93.2622 22.006C93.2622 22.006 85.7365 22.3835 81.9722 21.485C81.229 21.308 80.5322 20.9503 80.0615 20.443C79.933 20.3043 79.8215 20.115 79.7 19.9515C79.603 19.821 79.32 19.3923 79.193 19.0533C78.3332 16.7623 79.2937 12.3733 80.2352 10.0213C80.3445 9.74879 80.4817 9.40304 80.6262 9.10929C80.8067 8.74304 80.9595 8.32954 81.1037 8.11054C81.2007 7.95954 81.321 7.86229 81.4217 7.71979C81.538 7.55129 81.6732 7.38804 81.7985 7.24229C82.146 6.83929 82.5402 6.55429 83.0145 6.20029C84.5827 5.02579 87.421 4.11404 90.8307 4.46304C92.1145 4.59504 94.0532 5.05354 94.9995 6.37379C95.253 6.72629 95.3782 7.42629 95.5205 7.93704V7.93679Z" fill="#1A1918"/>
<path fill-rule="evenodd" clip-rule="evenodd" d="M74.8073 4.62249L79.1863 4.59674C79.1863 4.59674 76.7458 16.1735 75.502 21.8187H70.4645C66.944 21.8187 63.8088 22.2547 62.4748 19.7342C61.1808 17.287 62.4158 13.2625 62.9958 10.5282C63.4058 8.59324 64.2693 4.63824 64.2693 4.63824L68.8063 4.59674C68.8063 4.59674 67.5243 10.7542 66.9908 13.8287C66.7998 14.93 66.4058 15.967 66.8173 16.7812C67.208 17.5562 67.7553 17.6117 69.4225 17.65C69.9508 17.6625 71.6808 17.65 71.6808 17.65L74.8073 4.62249" fill="#1A1918"/>
<path fill-rule="evenodd" clip-rule="evenodd" d="M54.311 12.96C54.7695 11.331 55.4383 9.56451 55.3533 8.09651C55.2613 6.52651 53.9448 5.09701 53.0953 4.79651C50.5368 3.89326 48.1415 5.15601 47.1895 6.18601C45.958 7.52001 45.541 9.07826 45.105 11.2235C44.7805 12.816 44.5145 14.4973 45.105 15.7393C46.1505 17.935 49.411 17.4555 52.9215 17.4765C53.4425 16.08 53.8733 14.5115 54.311 12.96ZM60.3905 6.53351C60.8905 10.1705 58.9715 14.185 57.6495 17.676C58.9975 17.7978 60.1788 17.6573 60.2638 17.7578C60.3523 17.888 59.3603 21.9248 59.0145 21.9353C57.9448 21.963 54.3998 21.9925 52.9215 21.9925C48.0978 21.9925 43.5853 22.3068 41.284 19.9083C40.3495 18.9338 39.7033 17.2625 39.5468 16.0868C39.2863 14.124 39.6128 11.963 40.068 10.1813C40.4798 8.57251 41.0075 7.05451 41.805 5.66476C43.832 2.12676 47.358 -0.499486 53.2688 0.106764C54.4153 0.224764 56.0618 0.726763 57.0903 1.32251C57.1613 1.36426 57.41 1.56226 57.467 1.59701C58.8568 2.48126 60.123 4.59151 60.3905 6.53351V6.53351Z" fill="#1A1918"/>
<path fill-rule="evenodd" clip-rule="evenodd" d="M39.0483 4.64349C38.7565 5.97224 38.4648 7.47849 38.1573 8.79149H33.2938C33.6705 7.33599 33.959 5.88899 34.336 4.62274C35.8923 4.62274 37.3393 4.64349 39.0485 4.64349" fill="#1A1918"/>
<path fill-rule="evenodd" clip-rule="evenodd" d="M33.12 10.0075H37.81C37.1967 13.4015 35.9825 18.8763 35.0307 22.6873C34.435 25.0723 34.0372 26.8125 32.4252 28.0718C32.281 28.1848 32.1977 28.131 32.0777 28.2455C31.7807 28.5288 30.4067 28.8573 29.6462 28.9403C28.4095 29.0743 27.0112 28.9578 25.4912 28.9265C25.889 27.4728 26.339 25.727 26.6935 24.424C30.3985 24.8725 30.4922 21.3705 31.2095 17.9975C31.6245 16.0485 32.8822 10.789 33.12 10.0075" fill="#1A1918"/>
<path fill-rule="evenodd" clip-rule="evenodd" d="M22.177 18.866L22.0765 19.1265C20.364 22.4615 17.3292 24.5075 13.0007 24.5978C10.9772 24.6395 9.04924 24.1203 7.78974 23.5558C5.07174 22.3345 2.78549 20.0698 1.53699 17.65C-0.254006 14.1813 -0.577006 9.35601 3.14699 5.75201C3.20449 5.75201 2.69524 6.53351 2.75274 6.53351L2.65024 6.86701C-0.0332558 15.2685 8.23449 22.4685 16.2715 21.645C18.203 21.447 20.666 20.3893 22.177 18.866Z" fill="#21609B"/>
<path fill-rule="evenodd" clip-rule="evenodd" d="M17.3135 15.392C19.3355 15.4057 21.4475 14.4607 22.6983 13.134C21.604 15.9115 18.4358 17.6967 14.1873 17.129C10.6298 16.653 7.24101 13.0732 6.89201 9.48623C6.63676 6.87573 7.54651 5.31773 9.04576 3.42773C8.52476 4.41623 8.33001 5.17848 8.28151 5.66473C7.71201 11.3117 12.7925 15.3622 17.3135 15.392" fill="#21609B"/>
<path fill-rule="evenodd" clip-rule="evenodd" d="M22.495 8.378C22.1807 9.099 20.371 10.4605 19.5717 10.6307C16.407 11.305 14.3802 9.80425 13.3185 8.0965C13.1607 7.8415 12.869 7.145 12.8167 6.96775C12.405 5.56775 12.5942 3.45025 13.8225 2.35425C13.4525 3.3965 13.3985 4.607 13.5932 5.394C13.7112 5.86975 14.0707 6.7005 14.4305 7.223C15.085 8.17475 15.5002 8.406 16.341 8.9115C16.7197 9.139 17.126 9.3215 17.3015 9.3715C18.0987 9.60625 19.782 10.2245 22.4952 8.378" fill="#21609B"/>
</g>
<defs>
<clipPath id="clip0">
<rect width="128" height="29" fill="white"/>
</clipPath>
</defs>
</svg>

<svg width="128" height="29" fill="none" xmlns="http://www.w3.org/2000/svg"><g clip-path="url(#clip0)" fill-rule="evenodd" clip-rule="evenodd"><path d="M122.429 2.162l5.355.029s-9.956 13.491-10.769 14.59c-.264.357-.665.74-.868 1.216-.514 1.197-1.042 3.822-1.042 3.822l-4.9.024s.762-2.736.731-4.193c-.028-1.273-.678-2.544-1.042-3.821-.369-1.293-.869-3.822-.869-3.822h5.038l.694 2.78 7.672-10.626" fill="#1A1918"/><path d="M112.289 5.007c.988.595 1.595 3.882 1.595 3.882s-5.171.076-7.985.076h-2.432l-2.953 12.854h-4.516s2.81-13.969 3.474-16.501c.215-.82 1.473-.68 3.597-.68h3.393c2.19 0 4.75-.28 5.827.369m-21.024 6.26s.14-.825-.478-1.78c-.528-.815-1.016-1.005-2.405-1.048-3.924-.123-3.848 2.784-3.848 2.784l6.731.044zm4.255-3.33c.576 2.074-.52 6.948-.52 6.948s-5.724-.096-8.859 0c-.975.03-2.142-.106-2.432.347-.408.636.15 1.614.622 2.027.544.476 1.603.53 1.984.578 2.544.324 7.87.084 7.87.084l-.923 4.085s-7.525.378-11.29-.521c-.743-.177-1.44-.535-1.91-1.042-.129-.139-.24-.328-.362-.492-.097-.13-.38-.559-.507-.898-.86-2.29.1-6.68 1.042-9.032.11-.272.247-.618.391-.912.18-.366.334-.78.478-.998.097-.151.217-.249.318-.391.116-.169.251-.332.377-.478.347-.403.741-.688 1.215-1.042 1.569-1.174 4.407-2.086 7.817-1.737 1.284.132 3.222.59 4.168 1.91.254.353.38 1.053.522 1.564zM74.807 4.622l4.38-.025s-2.441 11.576-3.685 17.222h-5.037c-3.521 0-6.656.436-7.99-2.085-1.294-2.447-.06-6.472.52-9.206.41-1.935 1.274-5.89 1.274-5.89l4.537-.041s-1.282 6.157-1.815 9.232c-.191 1.101-.585 2.138-.174 2.952.391.775.938.83 2.606.869.528.013 2.258 0 2.258 0l3.126-13.028M54.311 12.96c.459-1.629 1.127-3.395 1.042-4.863-.092-1.57-1.408-3-2.258-3.3-2.558-.904-4.953.359-5.905 1.389-1.232 1.334-1.649 2.892-2.085 5.037-.324 1.593-.59 3.274 0 4.516 1.046 2.196 4.306 1.716 7.817 1.738.52-1.397.951-2.966 1.389-4.517zm6.08-6.426c.5 3.637-1.42 7.651-2.741 11.142 1.348.122 2.529-.019 2.614.082.088.13-.904 4.167-1.25 4.177-1.07.028-4.614.058-6.093.058-4.823 0-9.336.314-11.637-2.085-.934-.974-1.58-2.646-1.737-3.821-.26-1.963.066-4.124.521-5.906.412-1.608.94-3.126 1.737-4.516C43.832 2.127 47.358-.5 53.269.107c1.146.118 2.793.62 3.821 1.216.071.041.32.24.377.274 1.39.884 2.656 2.995 2.924 4.937zM39.048 4.643c-.291 1.33-.583 2.835-.89 4.148h-4.864c.377-1.455.665-2.902 1.042-4.168 1.556 0 3.003.02 4.712.02m-5.928 5.365h4.69c-.613 3.394-1.828 8.868-2.78 12.68-.595 2.384-.993 4.125-2.605 5.384-.144.113-.227.059-.347.174-.297.283-1.671.611-2.432.694-1.236.134-2.635.018-4.155-.014.398-1.453.848-3.199 1.203-4.502 3.704.448 3.798-3.053 4.515-6.427.416-1.948 1.673-7.208 1.911-7.99" fill="#1A1918"/><path d="M22.177 18.866l-.1.26c-1.713 3.335-4.748 5.381-9.076 5.472-2.024.042-3.952-.478-5.211-1.042-2.718-1.222-5.005-3.486-6.253-5.906-1.791-3.469-2.114-8.294 1.61-11.898.057 0-.452.782-.394.782l-.103.333c-2.683 8.401 5.584 15.601 13.621 14.778 1.932-.198 4.395-1.256 5.906-2.779z" fill="#21609B"/><path d="M17.314 15.392c2.021.014 4.134-.931 5.384-2.258-1.094 2.777-4.262 4.563-8.51 3.995-3.558-.476-6.947-4.056-7.296-7.643-.255-2.61.655-4.168 2.154-6.058-.521.988-.716 1.75-.764 2.237-.57 5.647 4.51 9.697 9.032 9.727" fill="#21609B"/><path d="M22.495 8.378c-.314.721-2.124 2.082-2.923 2.253-3.165.674-5.192-.827-6.253-2.534-.158-.255-.45-.952-.502-1.13-.412-1.4-.223-3.517 1.005-4.613-.37 1.042-.423 2.253-.229 3.04.118.476.478 1.306.838 1.829.654.952 1.07 1.183 1.91 1.689.379.227.785.41.96.46.798.234 2.481.853 5.194-.994" fill="#21609B"/></g><defs><clipPath id="clip0"><path fill="#fff" d="M0 0h128v29H0z"/></clipPath></defs></svg>
